static/logos/gitbook-wordmark-color.svg

<svg width="100" height="20" viewBox="0 0 100 20" fill="none" xmlns="http://www.w3.org/2000/svg">
<g clip-path="url(#clip0_1_2679)">
<path d="M12.3374 16.3217C12.7461 16.3217 13.1139 16.6499 13.1139 17.1011C13.1139 17.5112 12.787 17.8804 12.3374 17.8804C11.9288 17.8804 11.561 17.5522 11.561 17.1011C11.561 16.6499 11.9288 16.3217 12.3374 16.3217ZM24.3522 11.5637C23.9436 11.5637 23.5758 11.2356 23.5758 10.7844C23.5758 10.3743 23.9027 10.0051 24.3522 10.0051C24.7609 10.0051 25.1287 10.3333 25.1287 10.7844C25.1287 11.1946 24.7609 11.5637 24.3522 11.5637ZM24.3522 8.40547C23.0445 8.40547 21.982 9.47187 21.982 10.7844C21.982 11.0305 22.0228 11.2767 22.1046 11.5227L14.299 15.7065C13.8495 15.0502 13.1139 14.6811 12.3374 14.6811C11.4384 14.6811 10.621 15.2143 10.2124 15.9936L3.18334 12.3021C2.44774 11.8919 1.87561 10.7024 1.95734 9.55393C1.99821 8.97967 2.20254 8.52847 2.48861 8.36447C2.69294 8.2414 2.89727 8.2824 3.18334 8.40547C5.06322 9.38987 11.1932 12.6302 11.4384 12.7533C11.847 12.9173 12.0514 12.9993 12.7461 12.6712L25.333 6.1085C25.5374 6.02646 25.7417 5.86242 25.7417 5.5753C25.7417 5.20614 25.3739 5.04206 25.3739 5.04206C24.6383 4.71394 23.5349 4.1807 22.4724 3.68851C20.1838 2.62207 17.5684 1.39156 16.4241 0.776312C15.4433 0.24309 14.626 0.694279 14.5034 0.776312C9.31331 3.40139 2.16167 6.92887 1.75301 7.17493C1.05827 7.58507 0.608743 8.44647 0.567879 9.51287C0.486143 11.1946 1.34434 12.9583 2.57034 13.5736L10.008 17.4292C10.1715 18.5777 11.1932 19.48 12.3374 19.48C13.6452 19.48 14.6668 18.4546 14.7077 17.1421L22.881 12.7122C23.2897 13.0404 23.821 13.2044 24.3522 13.2044C25.66 13.2044 26.7225 12.138 26.7225 10.8255C26.7225 9.47186 25.66 8.40547 24.3522 8.40547Z" fill="#4D82F7"/>
<path d="M92.9638 10.408V3.64001L89.8438 3.64032V16.36H92.9638V13.408L93.5324 12.7246L95.8918 16.36H99.4438L95.8471 10.8585L99.2517 6.76004H95.7764L92.9638 10.408Z" fill="black"/>
<path d="M84.0908 16.5639C87.1095 16.5639 88.9935 14.7417 88.9935 11.5375C88.9935 8.395 87.0835 6.52002 84.0908 6.52002C81.1148 6.52002 79.1875 8.4038 79.1875 11.5375C79.1875 14.7329 81.0708 16.5639 84.0908 16.5639ZM84.0908 14.2752C83.0168 14.2752 82.3562 13.2981 82.3562 11.5463C82.3562 9.821 83.0342 8.80867 84.0908 8.80867C85.1555 8.80867 85.8335 9.821 85.8335 11.5463C85.8335 13.2981 85.1555 14.2752 84.0908 14.2752Z" fill="black"/>
<path d="M73.6846 16.5713C76.7039 16.5713 78.5873 14.7492 78.5873 11.545C78.5873 8.40243 76.6772 6.52747 73.6846 6.52747C70.7092 6.52747 68.7812 8.41123 68.7812 11.545C68.7812 14.7404 70.6652 16.5713 73.6846 16.5713ZM73.6846 14.2826C72.6106 14.2826 71.9499 13.3055 71.9499 11.5538C71.9499 9.82849 72.6279 8.81616 73.6846 8.81616C74.7492 8.81616 75.4273 9.82849 75.4273 11.5538C75.4273 13.3055 74.7492 14.2826 73.6846 14.2826Z" fill="black"/>
<path d="M63.7517 16.36C66.4717 16.36 68.181 14.9074 68.181 12.6803C68.181 10.9902 66.8257 9.67124 65.1093 9.59204C66.5177 9.39837 67.591 8.23504 67.591 6.80897C67.591 4.84597 66.0861 3.64001 63.5861 3.64001H57.6797V16.36H63.7517ZM60.9101 5.92869H62.7325C63.8153 5.92869 64.4489 6.45685 64.4489 7.34591C64.4489 8.26144 63.7449 8.81597 62.5741 8.81597H60.9101V5.92869ZM60.9101 14.0536V10.779H62.8117C64.1409 10.779 64.8977 11.3599 64.8977 12.3986C64.8977 13.4726 64.1585 14.0536 62.8293 14.0536H60.9101Z" fill="black"/>
<path d="M51.9747 4.60852V6.75989H50.6719V9.05383H51.9747V13.7104C51.9747 15.5942 52.9447 16.4319 55.4359 16.4319C56.0431 16.4319 56.5167 16.3072 56.8163 16.2456V14.0274C56.6315 14.0626 56.4463 14.0714 56.1999 14.0714C55.4519 14.0714 55.0995 13.7368 55.0995 13.0766V9.05383H56.8159V6.75989H55.0995V4.60852H51.9747Z" fill="black"/>
<path d="M46.6875 16.36H49.8075V6.76001H46.6875V16.36Z" fill="black"/>
<path d="M49.8566 4.48475C49.8566 5.35675 49.147 6.08807 48.2438 6.08807C47.3502 6.08807 46.6406 5.35675 46.6406 4.48475C46.6406 3.6034 47.3502 2.87207 48.2438 2.87207C49.147 2.87207 49.8566 3.6034 49.8566 4.48475Z" fill="black"/>
<path d="M45.5379 14.2337V9.4374H40.3559V11.7414H42.4179V13.2774C41.8899 13.7297 41.4819 13.9553 40.1007 13.9553C38.2432 13.9553 37.0461 12.4324 37.0461 9.9148C37.0461 7.44127 38.1288 6.00647 39.9597 6.00647C41.2011 6.00647 42.1011 6.69307 42.4179 7.8198H45.5379C45.2123 5.23183 43.0319 3.40967 39.9509 3.40967C36.113 3.40967 33.9219 5.83239 33.9219 9.952C33.9219 14.1245 36.113 16.552 40.0303 16.552C43.4955 16.552 44.9139 15.2657 45.5379 14.2337Z" fill="black"/>
</g>
<defs>
<clipPath id="clip0_1_2679">
<rect width="100" height="20" fill="white"/>
</clipPath>
</defs>
</svg>

<svg xmlns="http://www.w3.org/2000/svg" width="320" height="64" fill="none" viewBox="0 0 100 20"><g clip-path="url(#a)"><path fill="#4D82F7" d="M12.337 16.322c.41 0 .777.328.777.78a.777.777 0 1 1-1.553 0c0-.452.368-.78.776-.78Zm12.015-4.758a.777.777 0 0 1-.776-.78.777.777 0 1 1 1.553 0c0 .41-.368.78-.777.78Zm0-3.159a2.376 2.376 0 0 0-2.37 2.38c0 .245.04.492.123.738l-7.806 4.184a2.365 2.365 0 0 0-1.962-1.026c-.899 0-1.716.533-2.125 1.313l-7.029-3.692c-.735-.41-1.307-1.6-1.226-2.748.041-.574.246-1.026.532-1.19.204-.123.408-.082.694.041 1.88.985 8.01 4.225 8.255 4.348.409.164.613.246 1.308-.082L25.333 6.11c.204-.083.409-.247.409-.534 0-.369-.368-.533-.368-.533-.736-.328-1.84-.861-2.902-1.353-2.288-1.067-4.904-2.297-6.048-2.913-.98-.533-1.798-.082-1.92 0C9.313 3.401 2.161 6.93 1.752 7.175 1.058 7.585.609 8.446.568 9.513c-.082 1.682.776 3.445 2.002 4.06l7.438 3.856c.164 1.149 1.185 2.051 2.33 2.051 1.307 0 2.329-1.025 2.37-2.338l8.173-4.43c.409.328.94.492 1.471.492a2.376 2.376 0 0 0 2.37-2.379c0-1.353-1.062-2.42-2.37-2.42Z"/><path fill="#000" d="M92.964 10.408V3.64h-3.12v12.72h3.12v-2.952l.568-.683 2.36 3.635h3.552l-3.597-5.502 3.405-4.098h-3.476l-2.812 3.648ZM84.09 16.564c3.02 0 4.903-1.822 4.903-5.027 0-3.142-1.91-5.017-4.902-5.017-2.976 0-4.903 1.884-4.903 5.018 0 3.195 1.883 5.026 4.903 5.026Zm0-2.289c-1.073 0-1.734-.977-1.734-2.729 0-1.725.678-2.737 1.735-2.737 1.065 0 1.743 1.012 1.743 2.737 0 1.752-.678 2.73-1.743 2.73ZM73.685 16.571c3.019 0 4.902-1.822 4.902-5.026 0-3.143-1.91-5.018-4.902-5.018-2.976 0-4.904 1.884-4.904 5.018 0 3.195 1.884 5.026 4.904 5.026Zm0-2.288c-1.074 0-1.735-.977-1.735-2.73 0-1.725.678-2.737 1.735-2.737 1.064 0 1.742 1.012 1.742 2.738 0 1.752-.678 2.729-1.742 2.729ZM63.752 16.36c2.72 0 4.429-1.453 4.429-3.68 0-1.69-1.355-3.009-3.072-3.088 1.409-.194 2.482-1.357 2.482-2.783 0-1.963-1.505-3.169-4.005-3.169H57.68v12.72h6.072ZM60.91 5.929h1.823c1.082 0 1.716.528 1.716 1.417 0 .915-.704 1.47-1.875 1.47H60.91V5.929Zm0 8.125v-3.275h1.902c1.329 0 2.086.58 2.086 1.62 0 1.074-.74 1.655-2.069 1.655H60.91ZM51.975 4.609v2.15h-1.303v2.295h1.303v4.656c0 1.884.97 2.722 3.46 2.722.608 0 1.082-.125 1.381-.186v-2.219c-.184.036-.37.044-.616.044-.748 0-1.1-.334-1.1-.994V9.054h1.716V6.76h-1.717V4.609h-3.124ZM46.688 16.36h3.12v-9.6h-3.12v9.6ZM49.857 4.485a1.609 1.609 0 1 1-3.218-.011 1.609 1.609 0 0 1 3.218.01ZM45.538 14.234V9.437h-5.182v2.304h2.062v1.536c-.528.453-.936.678-2.317.678-1.858 0-3.055-1.523-3.055-4.04 0-2.474 1.083-3.909 2.914-3.909 1.241 0 2.141.687 2.458 1.814h3.12c-.326-2.588-2.506-4.41-5.587-4.41-3.838 0-6.03 2.422-6.03 6.542 0 4.172 2.192 6.6 6.11 6.6 3.465 0 4.883-1.286 5.507-2.318Z"/></g><defs><clipPath id="a"><path fill="#fff" d="M0 0h100v20H0z"/></clipPath></defs></svg>
